X: 20813
Q: "Moderate."
M: C
L: 1/8
K: Gmix
[|\
E2G2 (d>c)(B>A) | G3A {GA}B2D2 |\
E2G2 d3B | (ed)(cB) A3B |\
(G>BA)c (B>de)d | (cB)(A>G) B2HD |]
E3G D2E2 | F>EFG {FG}A2(GF) |\
(E2 E/^F/)G D2E2 | (G>AB)A {GA}B2D2 |\
(E>DE)G (E>GD)E | (F>EF)G A2(G^F) |\
(G>BA)c (B>de)d | (cB)(A>G) {GA}B2D |]
d |\
e2 (e/^f/)g d2e2 | (f>ef)g {fg}a2(gf) |\
(e>de)g (e>gd)e | (g>^fg)a g2d2 |\
(e>de)g {f}e2(dB) | d2(de) f2(e>d) |\
(e>g^f)e (dc)(BA) | G3A {GA}B2D2 |]


